X: 28
T:Fiery Clock Fyece
R:jig
C:Trad
M:6/8
L:1/8
K:G
 d | g2 g G2 A | B2 c d2 e | =f2 f A2 B | c2 d e2 f | g2 g G2 A | B2 c d
2 d | efg a2 f | g3 g2 :|
 G | B2 B GAB | c2 B A2 G | F2 E D2 E | F2 G A2 ^A | B2 B GAB | c2 B A2
G | FED E2 F | G3 G2 :|
